X:1076
T:Billy in the Lowground
R:reel
O:American
Z:id:hn-reel-1076
M:C|
L:1/8
K:C
A,B, | CB,CD EGAB | cBcd cAGc | A2AG ABcd | e2ed cAGE |
CB,CD EGAB | cBcd cAGc | A2AG A2AB | cAGE C2 :|
|: z2 | egge g2ge | gage dccd | eaag a2ag | abag edcd |
egge g2ge | gage dcAG | A2AG A2AB | cAGE C2 :|

